_site/images/bookmark.svg

<svg version="2.1" xmlns="http://www.w3.org/2000/svg" xmlns:xlink="http://www.w3.org/1999/xlink" width="60" height="60" viewBox="0 0 768 768">
  <path fill="#3cb371" d="M224 32h320q39.75 0 67.875 28.125t28.125 67.875v608l-256-192-256 192v-608q0-39.75 28.125-67.875t67.875-28.125zM544 96h-320q-13.25 0-22.625 9.375t-9.375 22.625v480l192-144 192 144v-480q0-13.25-9.375-22.625t-22.625-9.375z"></path>
</svg>

<svg version="2.1" xmlns="http://www.w3.org/2000/svg" width="60" height="60" viewBox="0 0 768 768"><path fill="#3cb371" d="M224 32h320q39.75 0 67.875 28.125T640 128v608L384 544 128 736V128q0-39.75 28.125-67.875T224 32zm320 64H224q-13.25 0-22.625 9.375T192 128v480l192-144 192 144V128q0-13.25-9.375-22.625T544 96z"/></svg>
